public/avatar/hat/132.svg

<svg xmlns:xlink="http://www.w3.org/1999/xlink" height="92.9" width="100.7" xmlns="http://www.w3.org/2000/svg"><use height="17.6" transform="translate(21.7 47.45)" width="34.45" xlink:href="#a"/><defs><g id="a" fill-rule="evenodd"><path d="M-15.8 9.95q.5-2.4 1.15-3.1 1.25-1.3 4.25-.5.75 1.15.35 4.1-.45 2.95-4.75 4.65l-1.55.05-.45-.3 1.25-1.7-.9.1q-.8-.05-.35-.55.55-.45 1-2.75M8.55 1.9q1.15 2.75.3 4.75-.3-1.5-1.05-1.85Q7 6 4.95 6.4 6.1 4.8 4.8 3.55 3.45 5.65.85 6.15q4.8-4.45-2.1-5.3-2.45-.2-3.8.75Q-2.25-3.45 3.1-2 7.75-.75 8.55 1.9" fill="#8c8a86" transform="translate(16.95 2.3)"/><path d="m-15.25 12.3.4-2.15q.55-2.25 1.15-2.55l2.5-.1q1.3 4.4-2.7 6.2.65-1.15.45-2.4l-1.8 1" fill="#c4c4c4" transform="translate(16.95 2.3)"/><path d="M16.2 9.9q.55 2.35 1.1 2.8.75.8-1.25.45l1.25 1.7q-.5.75-2 .25-4.3-1.7-4.75-4.65-.25-1.85.05-3.15l.3-.95 1.55-.3q1.7-.1 2.5.75.65.7 1.25 3.1" fill="#8c8a86" transform="translate(16.95 2.3)"/><path d="m15.1 11.8-1.35-.6.6 2.45q-2.45-1.7-2.9-4.15l.05-2.05 2.5.05q.95.5 1.1 4.3M2.2-.75q3.05.7 4.35 2 .85.85 1.5 2.1l-.95-.6q.3 1.5-.65 2.25.3-1.3-1.6-2.6l-1.5 1.8Q3.9 1.85 1.55.75-.4-.2-2.55.15L-1.1-.5l3.3-.25" fill="#c4c4c4" transform="translate(16.95 2.3)"/><path d="m12 8.05 1.75.35.5 1.6L13 9.9v1.15l-1-3m-23.8.1q-.1 2-1 3 .15-.35 0-1.2l-1.25.1.5-1.6 1.75-.3m15.5-6Q3.7.8 1.35-.25L3.1 0q2.05.55 3.45 1.9-.6-.2-.3.75-.95-1.1-1.85-.9l-.7.4" fill="#e2e1e1" transform="translate(16.95 2.3)"/></g></defs></svg>

<?xml version="1.0" encoding="UTF-8" standalone="no"?>
<svg xmlns:xlink="http://www.w3.org/1999/xlink" height="92.9px" width="100.7px" xmlns="http://www.w3.org/2000/svg">
  <g transform="matrix(1.0, 0.0, 0.0, 1.0, 38.65, 49.75)">
    <use height="17.6" transform="matrix(1.0, 0.0, 0.0, 1.0, -16.95, -2.3)" width="34.45" xlink:href="#shape0"/>
  </g>
  <defs>
    <g id="shape0" transform="matrix(1.0, 0.0, 0.0, 1.0, 16.95, 2.3)">
      <path d="M-15.8 9.95 Q-15.3 7.55 -14.65 6.85 -13.4 5.55 -10.4 6.35 -9.65 7.5 -10.05 10.45 -10.5 13.4 -14.8 15.1 L-16.35 15.15 -16.8 14.85 -15.55 13.15 -16.45 13.25 Q-17.25 13.2 -16.8 12.7 -16.25 12.25 -15.8 9.95" fill="#8c8a86" fill-rule="evenodd" stroke="none"/>
      <path d="M8.55 1.9 Q9.7 4.65 8.85 6.65 8.55 5.15 7.8 4.8 7.0 6.0 4.95 6.4 6.1 4.8 4.8 3.55 3.45 5.65 0.85 6.15 5.65 1.7 -1.25 0.85 -3.7 0.65 -5.05 1.6 -2.25 -3.45 3.1 -2.0 7.75 -0.75 8.55 1.9" fill="#8c8a86" fill-rule="evenodd" stroke="none"/>
      <path d="M-15.25 12.3 L-14.85 10.15 Q-14.3 7.9 -13.7 7.6 L-11.2 7.5 Q-9.9 11.9 -13.9 13.7 -13.25 12.55 -13.45 11.3 L-15.25 12.3" fill="#c4c4c4" fill-rule="evenodd" stroke="none"/>
      <path d="M16.2 9.9 Q16.75 12.25 17.3 12.7 18.05 13.5 16.05 13.15 L17.3 14.85 Q16.8 15.6 15.3 15.1 11.0 13.4 10.55 10.45 10.3 8.6 10.6 7.3 L10.9 6.35 12.45 6.05 Q14.15 5.95 14.95 6.8 15.6 7.5 16.2 9.9" fill="#8c8a86" fill-rule="evenodd" stroke="none"/>
      <path d="M15.1 11.8 L13.75 11.2 14.35 13.65 Q11.9 11.95 11.45 9.5 L11.5 7.45 14.0 7.5 Q14.95 8.0 15.1 11.8" fill="#c4c4c4" fill-rule="evenodd" stroke="none"/>
      <path d="M2.2 -0.75 Q5.25 -0.05 6.55 1.25 7.4 2.1 8.05 3.35 L7.1 2.75 Q7.4 4.25 6.45 5.0 6.75 3.7 4.85 2.4 L3.35 4.2 Q3.9 1.85 1.55 0.75 -0.4 -0.2 -2.55 0.15 L-1.1 -0.5 2.2 -0.75" fill="#c4c4c4" fill-rule="evenodd" stroke="none"/>
      <path d="M12.0 8.05 L13.75 8.4 14.25 10.0 13.0 9.9 13.0 11.05 12.0 8.05" fill="#e2e1e1" fill-rule="evenodd" stroke="none"/>
      <path d="M-11.8 8.15 Q-11.9 10.15 -12.8 11.15 -12.65 10.8 -12.8 9.95 L-14.05 10.05 -13.55 8.45 -11.8 8.15" fill="#e2e1e1" fill-rule="evenodd" stroke="none"/>
      <path d="M3.7 2.15 Q3.7 0.8 1.35 -0.25 L3.1 0.0 Q5.15 0.55 6.55 1.9 5.95 1.7 6.25 2.65 5.3 1.55 4.4 1.75 L3.7 2.15" fill="#e2e1e1" fill-rule="evenodd" stroke="none"/>
    </g>
  </defs>
</svg>
